src/helpers/heroicons/solid/document-text.svg

<svg width="24" height="24" viewBox="0 0 24 24" fill="none" xmlns="http://www.w3.org/2000/svg">
<path fill-rule="evenodd" clip-rule="evenodd" d="M5.625 1.5C4.58947 1.5 3.75 2.33947 3.75 3.375V20.625C3.75 21.6605 4.58947 22.5 5.625 22.5H18.375C19.4105 22.5 20.25 21.6605 20.25 20.625V12.75C20.25 10.6789 18.5711 9 16.5 9H14.625C13.5895 9 12.75 8.16053 12.75 7.125V5.25C12.75 3.17893 11.0711 1.5 9 1.5H5.625ZM7.5 15C7.5 14.5858 7.83579 14.25 8.25 14.25H15.75C16.1642 14.25 16.5 14.5858 16.5 15C16.5 15.4142 16.1642 15.75 15.75 15.75H8.25C7.83579 15.75 7.5 15.4142 7.5 15ZM8.25 17.25C7.83579 17.25 7.5 17.5858 7.5 18C7.5 18.4142 7.83579 18.75 8.25 18.75H12C12.4142 18.75 12.75 18.4142 12.75 18C12.75 17.5858 12.4142 17.25 12 17.25H8.25Z" />
<path d="M12.9712 1.8159C13.768 2.73648 14.25 3.93695 14.25 5.25V7.125C14.25 7.33211 14.4179 7.5 14.625 7.5H16.5C17.8131 7.5 19.0135 7.98204 19.9341 8.77881C19.0462 5.37988 16.3701 2.70377 12.9712 1.8159Z" />
</svg>

<svg xmlns="http://www.w3.org/2000/svg" viewBox="0 0 24 24" fill="currentColor" aria-hidden="true" data-slot="icon">
  <path fill-rule="evenodd" d="M5.625 1.5c-1.036 0-1.875.84-1.875 1.875v17.25c0 1.035.84 1.875 1.875 1.875h12.75c1.035 0 1.875-.84 1.875-1.875V12.75A3.75 3.75 0 0 0 16.5 9h-1.875a1.875 1.875 0 0 1-1.875-1.875V5.25A3.75 3.75 0 0 0 9 1.5H5.625ZM7.5 15a.75.75 0 0 1 .75-.75h7.5a.75.75 0 0 1 0 1.5h-7.5A.75.75 0 0 1 7.5 15Zm.75 2.25a.75.75 0 0 0 0 1.5H12a.75.75 0 0 0 0-1.5H8.25Z" clip-rule="evenodd"/>
  <path d="M12.971 1.816A5.23 5.23 0 0 1 14.25 5.25v1.875c0 .207.168.375.375.375H16.5a5.23 5.23 0 0 1 3.434 1.279 9.768 9.768 0 0 0-6.963-6.963Z"/>
</svg>
